assets/icons/24px/stroke/eye-24px.svg

<svg width="24" height="24" viewBox="0 0 24 24" fill="none" xmlns="http://www.w3.org/2000/svg">
<path fill-rule="evenodd" clip-rule="evenodd" d="M3.67453 10.4653C3.17423 11.1693 3 11.7016 3 12C3 12.2984 3.17423 12.8307 3.67453 13.5347C4.15493 14.2108 4.86291 14.9411 5.73614 15.6153C7.4968 16.9748 9.78726 18 12 18C14.2127 18 16.5032 16.9748 18.2639 15.6153C19.1371 14.9411 19.8451 14.2108 20.3255 13.5347C20.8258 12.8307 21 12.2984 21 12C21 11.7016 20.8258 11.1693 20.3255 10.4653C19.8451 9.78922 19.1371 9.0589 18.2639 8.38467C16.5032 7.02523 14.2127 6 12 6C9.78726 6 7.4968 7.02523 5.73614 8.38467C4.86291 9.0589 4.15493 9.78922 3.67453 10.4653ZM4.51386 6.80163C6.5032 5.26563 9.21274 4 12 4C14.7873 4 17.4968 5.26563 19.4861 6.80163C20.4879 7.5751 21.3424 8.44364 21.9558 9.3068C22.5492 10.1419 23 11.0892 23 12C23 12.9108 22.5492 13.8581 21.9558 14.6932C21.3424 15.5564 20.4879 16.4249 19.4861 17.1984C17.4968 18.7344 14.7873 20 12 20C9.21274 20 6.5032 18.7344 4.51386 17.1984C3.51209 16.4249 2.65757 15.5564 2.04422 14.6932C1.45077 13.8581 1 12.9108 1 12C1 11.0892 1.45077 10.1419 2.04422 9.3068C2.65757 8.44364 3.51209 7.5751 4.51386 6.80163Z" fill="white"/>
<path fill-rule="evenodd" clip-rule="evenodd" d="M12 10C10.8954 10 10 10.8954 10 12C10 13.1046 10.8954 14 12 14C13.1046 14 14 13.1046 14 12C14 10.8954 13.1046 10 12 10ZM8 12C8 9.79086 9.79086 8 12 8C14.2091 8 16 9.79086 16 12C16 14.2091 14.2091 16 12 16C9.79086 16 8 14.2091 8 12Z" fill="white"/>
</svg>

<svg width="24" height="24" fill="none" xmlns="http://www.w3.org/2000/svg"><path fill-rule="evenodd" clip-rule="evenodd" d="M3.675 10.465C3.175 11.17 3 11.702 3 12c0 .298.174.83.675 1.535.48.676 1.188 1.406 2.061 2.08C7.496 16.975 9.787 18 12 18s4.503-1.025 6.264-2.385c.873-.674 1.581-1.404 2.062-2.08.5-.704.674-1.237.674-1.535 0-.298-.174-.83-.674-1.535-.48-.676-1.189-1.406-2.062-2.08C16.504 7.025 14.213 6 12 6S7.497 7.025 5.736 8.385c-.873.674-1.581 1.404-2.061 2.08zm.839-3.663C6.504 5.266 9.213 4 12 4s5.497 1.266 7.486 2.802c1.002.773 1.856 1.642 2.47 2.505C22.549 10.142 23 11.089 23 12c0 .91-.45 1.858-1.044 2.693-.614.863-1.468 1.732-2.47 2.505C17.496 18.734 14.787 20 12 20s-5.497-1.266-7.486-2.802c-1.002-.773-1.856-1.642-2.47-2.505C1.451 13.858 1 12.911 1 12c0-.91.45-1.858 1.044-2.693.614-.863 1.468-1.732 2.47-2.505z" fill="#fff"/><path fill-rule="evenodd" clip-rule="evenodd" d="M12 10a2 2 0 1 0 0 4 2 2 0 0 0 0-4zm-4 2a4 4 0 1 1 8 0 4 4 0 0 1-8 0z" fill="#fff"/></svg>
